{"height":2,"infinite":false,"layers":[{"data":[1,2147483649,1073741825,536870913,3758096385,0],"height":2,"id":1,"name":"Ground","opacity":0.8,"type":"tilelayer","visible":true,"width":3,"x":0,"y":0,"properties":[{"name":"depth","type":"int","value":2}]},{"id":2,"name":"Collision","objects":[{"height":16,"id":1,"name":"Wall","rotation":0,"type":"","visible":true,"width":16,"x":32,"y":16}],"opacity":1,"type":"objectgroup","visible":true,"x":0,"y":0}],"orientation":"orthogonal","renderorder":"right-down","tiledversion":"1.11.2","tileheight":16,"tilesets":[{"firstgid":1,"source":"terrain.tsj"}],"tilewidth":16,"type":"map","version":"1.10","width":3}
